X:1
T:I’m So Glad That I Love Jesus
T:I’m So Glad That I Love Jesus
T:Arranged by J. E. Hazen
T:J. E. Hazen, 1898
T:Public Domain Courtesy of the Cyber Hymnal™
C:Arranged by J. E. Hazen
Z:Public Domain
Z:Courtesy of the Cyber Hymnal™
%%score ( 1 2 ) ( 3 4 )
L:1/8
Q:1/4=100
M:6/8
K:Eb
V:1 treble 
V:2 treble 
V:3 bass 
V:4 bass 
V:1
 E2 [EF] [EG]2 [EB] | [Ec]2 [EB] [EB] [Ge]2 | [Ee]2 [EB] [Ed]2 [Ac] | [GB]2 [FA] [EG]3 | %4
w: 1.~I’m so glad that|I love Je- sus,|For He is so|dear to me;|
w: 2.~I’m so glad that|I love Je- sus,|For I’m sure of|one true friend;|
w: 3.~I’m so glad that|I love Je- sus,|For when comes the|time to die,|
 E2 [EF] [EG]2 [EB] | [Ec]2 [EB] [EB] [Ge]2 | ([Ac][GB])[FA] [EG]2 [EB] | (FG)[DF] E3 || %8
w: I have found His|love is sweet- er|Than * all things of|earth * can be.|
w: Thro’ the sha- dows|and the sun- shine,|He * will love me|to * the end.|
w: He will bear me|in His bo- som|Safe- * ly to His|home * on high.|
"^Refrain" [EB][EB][EB] [Ge]2 [GB] | [EG][EG][EG] [Ed]3 | [DA][DA][DA] [DF]2 [Ac] | %11
w: |||
w: I am so glad that|Je- sus I know;|I am so glad, I|
w: |||
 !>![Ac]!>![GB]!>![FA] !>![EG]3 | [EB][EB][EB] [Ge]2 [GB] | [EG][EG][EG] [Ec]3 | %14
w: |||
w: do love Him so;|I am so glad that|Je- sus I know;|
w: |||
 [Ec][Ed][Ee] [GB]2 [EG] |"^riten." !>![DB]!>![DA]!>![DF] !>!E3 |] %16
w: ||
w: I am so glad, I|do love Him so;|
w: ||
V:2
 E2 x4 | x6 | x6 | x6 | E2 x4 | x6 | x6 | D2 E3 x || x6 | x6 | x6 | x6 | x6 | x6 | x6 | x3 E3 |] %16
V:3
 [E,G,]2 [E,A,] [E,B,]2 [E,G,] | [E,A,]2 [E,G,] [E,G,] [E,B,]2 | [G,B,]2 [G,B,] A,2 [A,E] | %3
 [B,E]2 B, [E,B,]3 | [E,G,]2 [E,A,] [E,B,]2 [E,G,] | [E,A,]2 [E,G,] [E,G,] [E,B,]2 | %6
 [A,,E]2 [A,,C] [B,,B,]2 [B,,G,] | (A,B,)[B,,A,] [E,G,]3 || [E,G,][E,G,][E,G,] [E,B,]2 [E,B,] | %9
 [E,B,][E,B,][E,B,] [A,,A,]3 | [B,,F,][B,,F,][B,,F,] [B,,B,]2 [B,,B,] | %11
 !>![B,,B,]!>![B,,B,]!>![B,,B,] !>![E,B,]3 | [E,G,][E,G,][E,G,] [E,B,]2 [E,B,] | %13
 [E,B,][E,B,][E,B,] [A,,A,]3 | [A,,A,][A,,B,][A,,C] [B,,E]2 [B,,B,] | %15
 !>![B,,F,]!>![B,,F,]!>![B,,A,] !>![E,G,]3 |] %16
V:4
 x6 | x6 | x3 A,2 x | x2 B, x3 | x6 | x6 | x6 | B,,2 x4 || x6 | x6 | x6 | x6 | x6 | x6 | x6 | x6 |] %16

